source/work/images/artifact_promotion.svg

<svg xmlns="http://www.w3.org/2000/svg" width="64" height="64" viewBox="0 0 64 64"><style type="text/css">.frame{fill:#FFFFFF;} .content{opacity:0.5;fill:#FFFFFF;}</style><path class="content" d="M47 55.5c0 .276-.224.5-.5.5h-15c-.276 0-.5-.224-.5-.5s.224-.5.5-.5h15c.276 0 .5.224.5.5zm9.5-2.5h-21.014c-.416.31-.927.5-1.486.5h-3c0 .276.224.5.5.5h25c.276 0 .5-.224.5-.5s-.224-.5-.5-.5zm-4.5-5.5c0-.276-.224-.5-.5-.5h-15v1h15c.276 0 .5-.224.5-.5zm4.5 3.5h-20c0 .356-.077.693-.211 1h20.211c.276 0 .5-.224.5-.5s-.224-.5-.5-.5zm0-6h-20v1h20c.276 0 .5-.224.5-.5s-.224-.5-.5-.5zm0-6h-20v1h20c.276 0 .5-.224.5-.5s-.224-.5-.5-.5zm0 2h-20v1h20c.276 0 .5-.224.5-.5s-.224-.5-.5-.5zm.5-27v20c0 1.105-.895 2-2 2h-18.5v-1h18.5l.213-.043-11.213-10.279-7.803 7.153c-.16-.299-.376-.56-.639-.771l7.702-7.06-11.205-10.271-.055.271v16.5h-1v-16.5c0-1.105.895-2 2-2h22c1.105 0 2 .895 2 2zm-13 9.322l11.213-10.279-.213-.043h-22l-.213.043 11.213 10.279zm12-9.322l-.055-.271-11.205 10.271 11.205 10.271.055-.271v-20zm.5 29h-20v1h20c.276 0 .5-.224.5-.5s-.224-.5-.5-.5zm-39.5-8v14c0 1.105-.895 2-2 2h-9c-1.105 0-2-.895-2-2v-14c0-1.105.895-2 2-2h9c1.105 0 2 .895 2 2zm-1.018-.091l-4.875 7.091 4.875 7.091.018-.091v-14l-.018-.091zm-9.982-.909c-.122 0-.237.029-.345.07l4.845 7.047 4.845-7.047c-.108-.041-.223-.07-.345-.07h-9zm3.893 8l-4.875-7.091-.018.091v14l.018.091 4.875-7.091zm5.107 8c.122 0 .237-.029.345-.07l-4.845-7.047-4.845 7.047c.108.041.223.07.345.07h9zm2-41v4c0 1.105-.895 2-2 2h-9c-1.105 0-2-.895-2-2v-4c0-1.105.895-2 2-2h9c1.105 0 2 .895 2 2zm-1.078-.388l-4.378 2.388 4.378 2.388c.05-.12.078-.251.078-.388v-4c0-.137-.028-.268-.078-.388zm-10.844 4.776l4.378-2.388-4.378-2.388c-.05.12-.078.251-.078.388v4c0 .137.028.268.078.388zm5.422-2.957l4.456-2.431h-8.912l4.456 2.431zm-4.456 3.569h8.912l-4.456-2.431-4.456 2.431zm13.456 23h14c.276 0 .5-.224.5-.5s-.224-.5-.5-.5h-14c-.276 0-.5.224-.5.5s.224.5.5.5zm0 2h14c.276 0 .5-.224.5-.5s-.224-.5-.5-.5h-14c-.276 0-.5.224-.5.5s.224.5.5.5zm0 2h14c.276 0 .5-.224.5-.5s-.224-.5-.5-.5h-14c-.276 0-.5.224-.5.5s.224.5.5.5zm0 2h14c.276 0 .5-.224.5-.5s-.224-.5-.5-.5h-14c-.276 0-.5.224-.5.5s.224.5.5.5zm6 1h-6c-.276 0-.5.224-.5.5s.224.5.5.5h6c.276 0 .5-.224.5-.5s-.224-.5-.5-.5zm-6-33h9c.276 0 .5-.224.5-.5s-.224-.5-.5-.5h-9c-.276 0-.5.224-.5.5s.224.5.5.5zm0 2h9c.276 0 .5-.224.5-.5s-.224-.5-.5-.5h-9c-.276 0-.5.224-.5.5s.224.5.5.5z"/><path class="frame" d="M60 4h-56c-1.657 0-3 1.343-3 3v8c0 1.657 1.343 3 3 3h24v12h-24c-1.657 0-3 1.343-3 3v18c0 1.657 1.343 3 3 3h24v3c0 1.657 1.343 3 3 3h26c1.657 0 3-1.343 3-3v-39c1.657 0 3-1.343 3-3v-8c0-1.657-1.343-3-3-3zm-58 47v-18c0-1.103.897-2 2-2h30c1.103 0 2 .897 2 2v18c0 1.103-.897 2-2 2h-30c-1.103 0-2-.897-2-2zm57 6c0 1.103-.897 2-2 2h-26c-1.103 0-2-.897-2-2v-3h5c1.657 0 3-1.343 3-3v-18c0-1.657-1.343-3-3-3h-5v-18c0-1.103.897-2 2-2h26c1.103 0 2 .897 2 2v45zm3-42c0 1.103-.897 2-2 2v-5c0-1.657-1.343-3-3-3h-26c-1.657 0-3 1.343-3 3v5h-24c-1.103 0-2-.897-2-2v-8c0-1.103.897-2 2-2h56c1.103 0 2 .897 2 2v8z"/></svg>

<?xml version="1.0" encoding="utf-8"?>
<!-- Generator: Adobe Illustrator 19.2.1, SVG Export Plug-In . SVG Version: 6.00 Build 0)  -->
<svg version="1.1" id="icons" xmlns="http://www.w3.org/2000/svg" xmlns:xlink="http://www.w3.org/1999/xlink" x="0px" y="0px"
	 width="64px" height="64px" viewBox="0 0 64 64" style="enable-background:new 0 0 64 64;" xml:space="preserve">
<style type="text/css">
	.frame{fill:#FFFFFF;}
	.content{opacity:0.5;fill:#FFFFFF;}
</style>
<path class="content" d="M47,55.5c0,0.276-0.224,0.5-0.5,0.5h-15c-0.276,0-0.5-0.224-0.5-0.5s0.224-0.5,0.5-0.5h15
	C46.776,55,47,55.224,47,55.5z M56.5,53H35.486c-0.416,0.31-0.927,0.5-1.486,0.5h-3c0,0.276,0.224,0.5,0.5,0.5h25
	c0.276,0,0.5-0.224,0.5-0.5S56.776,53,56.5,53z M52,47.5c0-0.276-0.224-0.5-0.5-0.5h-15v1h15C51.776,48,52,47.776,52,47.5z M56.5,51
	h-20c0,0.356-0.077,0.693-0.211,1H56.5c0.276,0,0.5-0.224,0.5-0.5S56.776,51,56.5,51z M56.5,45h-20v1h20c0.276,0,0.5-0.224,0.5-0.5
	S56.776,45,56.5,45z M56.5,39h-20v1h20c0.276,0,0.5-0.224,0.5-0.5S56.776,39,56.5,39z M56.5,41h-20v1h20c0.276,0,0.5-0.224,0.5-0.5
	S56.776,41,56.5,41z M57,14v20c0,1.105-0.895,2-2,2H36.5v-1H55c0.075,0,0.142-0.027,0.213-0.043L44,24.678l-7.803,7.153
	c-0.16-0.299-0.376-0.56-0.639-0.771L43.26,24L32.055,13.729C32.03,13.817,32,13.904,32,14v16.5h-1V14c0-1.105,0.895-2,2-2h22
	C56.105,12,57,12.895,57,14z M44,23.322l11.213-10.279C55.142,13.027,55.075,13,55,13H33c-0.075,0-0.142,0.027-0.213,0.043
	L44,23.322z M56,14c0-0.096-0.03-0.183-0.055-0.271L44.74,24l11.205,10.271C55.97,34.183,56,34.096,56,34V14z M56.5,43h-20v1h20
	c0.276,0,0.5-0.224,0.5-0.5S56.776,43,56.5,43z M17,35v14c0,1.105-0.895,2-2,2H6c-1.105,0-2-0.895-2-2V35c0-1.105,0.895-2,2-2h9
	C16.105,33,17,33.895,17,35z M15.982,34.909L11.107,42l4.875,7.091C15.985,49.059,16,49.032,16,49V35
	C16,34.968,15.985,34.941,15.982,34.909z M6,34c-0.122,0-0.237,0.029-0.345,0.07l4.845,7.047l4.845-7.047
	C15.237,34.029,15.122,34,15,34H6z M9.893,42l-4.875-7.091C5.015,34.941,5,34.968,5,35v14c0,0.032,0.015,0.059,0.018,0.091L9.893,42
	z M15,50c0.122,0,0.237-0.029,0.345-0.07L10.5,42.883L5.655,49.93C5.763,49.971,5.878,50,6,50H15z M17,9v4c0,1.105-0.895,2-2,2H6
	c-1.105,0-2-0.895-2-2V9c0-1.105,0.895-2,2-2h9C16.105,7,17,7.895,17,9z M15.922,8.612L11.544,11l4.378,2.388
	C15.972,13.268,16,13.137,16,13V9C16,8.863,15.972,8.732,15.922,8.612z M5.078,13.388L9.456,11L5.078,8.612C5.028,8.732,5,8.863,5,9
	v4C5,13.137,5.028,13.268,5.078,13.388z M10.5,10.431L14.956,8H6.044L10.5,10.431z M6.044,14h8.912L10.5,11.569L6.044,14z M19.5,37
	h14c0.276,0,0.5-0.224,0.5-0.5S33.776,36,33.5,36h-14c-0.276,0-0.5,0.224-0.5,0.5S19.224,37,19.5,37z M19.5,39h14
	c0.276,0,0.5-0.224,0.5-0.5S33.776,38,33.5,38h-14c-0.276,0-0.5,0.224-0.5,0.5S19.224,39,19.5,39z M19.5,41h14
	c0.276,0,0.5-0.224,0.5-0.5S33.776,40,33.5,40h-14c-0.276,0-0.5,0.224-0.5,0.5S19.224,41,19.5,41z M19.5,43h14
	c0.276,0,0.5-0.224,0.5-0.5S33.776,42,33.5,42h-14c-0.276,0-0.5,0.224-0.5,0.5S19.224,43,19.5,43z M25.5,44h-6
	c-0.276,0-0.5,0.224-0.5,0.5s0.224,0.5,0.5,0.5h6c0.276,0,0.5-0.224,0.5-0.5S25.776,44,25.5,44z M19.5,11h9
	c0.276,0,0.5-0.224,0.5-0.5S28.776,10,28.5,10h-9c-0.276,0-0.5,0.224-0.5,0.5S19.224,11,19.5,11z M19.5,13h9
	c0.276,0,0.5-0.224,0.5-0.5S28.776,12,28.5,12h-9c-0.276,0-0.5,0.224-0.5,0.5S19.224,13,19.5,13z"/>
<path class="frame" d="M60,4H4C2.343,4,1,5.343,1,7v8c0,1.657,1.343,3,3,3h24v12H4c-1.657,0-3,1.343-3,3v18c0,1.657,1.343,3,3,3h24
	v3c0,1.657,1.343,3,3,3h26c1.657,0,3-1.343,3-3V18c1.657,0,3-1.343,3-3V7C63,5.343,61.657,4,60,4z M2,51V33c0-1.103,0.897-2,2-2h30
	c1.103,0,2,0.897,2,2v18c0,1.103-0.897,2-2,2H4C2.897,53,2,52.103,2,51z M59,57c0,1.103-0.897,2-2,2H31c-1.103,0-2-0.897-2-2v-3h5
	c1.657,0,3-1.343,3-3V33c0-1.657-1.343-3-3-3h-5V12c0-1.103,0.897-2,2-2h26c1.103,0,2,0.897,2,2V57z M62,15c0,1.103-0.897,2-2,2v-5
	c0-1.657-1.343-3-3-3H31c-1.657,0-3,1.343-3,3v5H4c-1.103,0-2-0.897-2-2V7c0-1.103,0.897-2,2-2h56c1.103,0,2,0.897,2,2V15z"/>
</svg>
